src/assets/filled/UserAdd.svg

<?xml version="1.0" encoding="UTF-8"?>
<svg width="24" height="24" viewBox="0 0 24 24" xmlns="http://www.w3.org/2000/svg">
 <path d="m12 15c-5.01 0-9.09 3.36-9.09 7.5 0 0.28 0.22 0.5 0.5 0.5h17.18c0.28 0 0.5-0.22 0.5-0.5 0-4.14-4.08-7.5-9.09-7.5z"/>
 <path d="m15.71 3.66c-0.9-1.02-2.24-1.66-3.71-1.66-1.4 0-2.68 0.57-3.59 1.51-0.87 0.9-1.41 2.14-1.41 3.49 0 0.94 0.26 1.82 0.73 2.57 0.25 0.43 0.57 0.82 0.95 1.14 0.87 0.8 2.03 1.29 3.32 1.29 1.83 0 3.41-0.98 4.28-2.43 0.26-0.43 0.46-0.91 0.57-1.41 0.1-0.37 0.15-0.76 0.15-1.16 0-1.28-0.49-2.45-1.29-3.34zm-1.84 4.26h-0.93v0.97c0 0.52-0.42 0.94-0.94 0.94s-0.94-0.42-0.94-0.94v-0.97h-0.93c-0.52 0-0.94-0.42-0.94-0.94s0.42-0.94 0.94-0.94h0.93v-0.89c0-0.52 0.42-0.94 0.94-0.94s0.94 0.42 0.94 0.94v0.89h0.93c0.52 0 0.94 0.42 0.94 0.94s-0.42 0.94-0.94 0.94z"/>
</svg>

<svg width="24" height="24" viewBox="0 0 24 24"  xmlns="http://www.w3.org/2000/svg">
<path d="M11.9999 15C6.98991 15 2.90991 18.36 2.90991 22.5C2.90991 22.78 3.12991 23 3.40991 23H20.5899C20.8699 23 21.0899 22.78 21.0899 22.5C21.0899 18.36 17.0099 15 11.9999 15Z" />
<path d="M15.71 3.66C14.81 2.64 13.47 2 12 2C10.6 2 9.32 2.57 8.41 3.51C7.54 4.41 7 5.65 7 7C7 7.94 7.26 8.82 7.73 9.57C7.98 10 8.3 10.39 8.68 10.71C9.55 11.51 10.71 12 12 12C13.83 12 15.41 11.02 16.28 9.57C16.54 9.14 16.74 8.66 16.85 8.16C16.95 7.79 17 7.4 17 7C17 5.72 16.51 4.55 15.71 3.66ZM13.87 7.92H12.94V8.89C12.94 9.41 12.52 9.83 12 9.83C11.48 9.83 11.06 9.41 11.06 8.89V7.92H10.13C9.61 7.92 9.19 7.5 9.19 6.98C9.19 6.46 9.61 6.04 10.13 6.04H11.06V5.15C11.06 4.63 11.48 4.21 12 4.21C12.52 4.21 12.94 4.63 12.94 5.15V6.04H13.87C14.39 6.04 14.81 6.46 14.81 6.98C14.81 7.5 14.39 7.92 13.87 7.92Z" />
</svg>
